world_stage/static/flags/rect/geo.svg

<svg height="800" viewBox="0 0 1200 800" width="1200" xmlns="http://www.w3.org/2000/svg" xmlns:xlink="http://www.w3.org/1999/xlink"><clipPath id="a"><path d="m0 600h900v-600h-900z" transform="translate(-172.92141 -539.90231)"/></clipPath><clipPath id="b"><path d="m0 600h900v-600h-900z" transform="translate(-251.60211 -502.07861)"/></clipPath><clipPath id="c"><path d="m0 600h900v-600h-900z" transform="translate(-686.22172 -176.6025)"/></clipPath><clipPath id="d"><path d="m0 600h900v-600h-900z" transform="translate(-764.90229 -138.7783)"/></clipPath><clipPath id="e"><path d="m0 600h900v-600h-900z" transform="translate(-686.22172 -539.90231)"/></clipPath><clipPath id="f"><path d="m0 600h900v-600h-900z" transform="translate(-764.90229 -502.07861)"/></clipPath><clipPath id="g"><path d="m0 600h900v-600h-900z" transform="translate(-172.92141 -176.6025)"/></clipPath><clipPath id="h"><path d="m0 600h900v-600h-900z" transform="translate(-251.60211 -138.7783)"/></clipPath><path d="m0 0h900v600h-900z" fill="#fff" transform="matrix(1.3333333 0 0 -1.3333333 0 800)"/><g fill="#e8112d"><path d="m0 0v-240h-390v-120h390v-240h120.001v240h389.999v120h-389.999v240z" transform="matrix(1.3333333 0 0 -1.3333333 519.9996 -.0004)"/><path clip-path="url(#a)" d="m0 0c7.315-38.491 7.315-78.014 0-116.504 13.566 1.692 27.291 1.692 40.857 0-7.315 38.49-7.315 78.013 0 116.504-13.566-1.693-27.291-1.693-40.857 0" transform="matrix(1.3333333 0 0 -1.3333333 230.56187 80.130267)"/><path clip-path="url(#b)" d="m0 0c-38.49-7.315-78.014-7.315-116.504 0 1.692-13.566 1.692-27.291 0-40.857 38.49 7.315 78.014 7.315 116.504 0-1.692 13.566-1.692 27.291 0 40.857" transform="matrix(1.3333333 0 0 -1.3333333 335.46947 130.56187)"/><path clip-path="url(#c)" d="m0 0c7.314-38.49 7.314-78.015 0-116.505 13.566 1.692 27.29 1.692 40.856 0-7.314 38.49-7.314 78.015 0 116.505-13.566-1.693-27.29-1.693-40.856 0" transform="matrix(1.3333333 0 0 -1.3333333 914.96227 564.53)"/><path clip-path="url(#d)" d="m0 0c-38.49-7.314-78.015-7.314-116.505 0 1.693-13.566 1.693-27.29 0-40.856 38.49 7.314 78.015 7.314 116.505 0-1.692 13.566-1.692 27.29 0 40.856" transform="matrix(1.3333333 0 0 -1.3333333 1019.8697 614.96227)"/><path clip-path="url(#e)" d="m0 0c7.314-38.491 7.314-78.014 0-116.504 13.566 1.692 27.29 1.692 40.856 0-7.314 38.49-7.314 78.013 0 116.504-13.566-1.693-27.29-1.693-40.856 0" transform="matrix(1.3333333 0 0 -1.3333333 914.96227 80.130267)"/><path clip-path="url(#f)" d="m0 0c-38.49-7.315-78.015-7.315-116.505 0 1.693-13.566 1.693-27.291 0-40.857 38.49 7.315 78.015 7.315 116.505 0-1.692 13.566-1.692 27.291 0 40.857" transform="matrix(1.3333333 0 0 -1.3333333 1019.8697 130.56187)"/><path clip-path="url(#g)" d="m0 0c7.315-38.49 7.315-78.015 0-116.505 13.566 1.692 27.291 1.692 40.857 0-7.315 38.49-7.315 78.015 0 116.505-13.566-1.693-27.291-1.693-40.857 0" transform="matrix(1.3333333 0 0 -1.3333333 230.56187 564.53)"/><path clip-path="url(#h)" d="m0 0c-38.49-7.314-78.014-7.314-116.504 0 1.692-13.566 1.692-27.29 0-40.856 38.49 7.314 78.014 7.314 116.504 0-1.692 13.566-1.692 27.29 0 40.856" transform="matrix(1.3333333 0 0 -1.3333333 335.46947 614.96227)"/></g></svg>

<?xml version="1.0" encoding="UTF-8" standalone="no"?>
<!-- Created with Inkscape (http://www.inkscape.org/) -->

<svg
   version="1.1"
   id="svg1"
   width="1200"
   height="800"
   viewBox="0 0 1200 800"
   sodipodi:docname="ge.ai"
   xmlns:inkscape="http://www.inkscape.org/namespaces/inkscape"
   xmlns:sodipodi="http://sodipodi.sourceforge.net/DTD/sodipodi-0.dtd"
   xmlns="http://www.w3.org/2000/svg"
   xmlns:svg="http://www.w3.org/2000/svg">
  <defs
     id="defs1">
    <clipPath
       clipPathUnits="userSpaceOnUse"
       id="clipPath4">
      <path
         d="M 0,600 H 900 V 0 H 0 Z"
         transform="translate(-172.92141,-539.90231)"
         id="path4" />
    </clipPath>
    <clipPath
       clipPathUnits="userSpaceOnUse"
       id="clipPath6">
      <path
         d="M 0,600 H 900 V 0 H 0 Z"
         transform="translate(-251.60211,-502.07861)"
         id="path6" />
    </clipPath>
    <clipPath
       clipPathUnits="userSpaceOnUse"
       id="clipPath8">
      <path
         d="M 0,600 H 900 V 0 H 0 Z"
         transform="translate(-686.22172,-176.6025)"
         id="path8" />
    </clipPath>
    <clipPath
       clipPathUnits="userSpaceOnUse"
       id="clipPath10">
      <path
         d="M 0,600 H 900 V 0 H 0 Z"
         transform="translate(-764.90229,-138.7783)"
         id="path10" />
    </clipPath>
    <clipPath
       clipPathUnits="userSpaceOnUse"
       id="clipPath12">
      <path
         d="M 0,600 H 900 V 0 H 0 Z"
         transform="translate(-686.22172,-539.90231)"
         id="path12" />
    </clipPath>
    <clipPath
       clipPathUnits="userSpaceOnUse"
       id="clipPath14">
      <path
         d="M 0,600 H 900 V 0 H 0 Z"
         transform="translate(-764.90229,-502.07861)"
         id="path14" />
    </clipPath>
    <clipPath
       clipPathUnits="userSpaceOnUse"
       id="clipPath16">
      <path
         d="M 0,600 H 900 V 0 H 0 Z"
         transform="translate(-172.92141,-176.6025)"
         id="path16" />
    </clipPath>
    <clipPath
       clipPathUnits="userSpaceOnUse"
       id="clipPath18">
      <path
         d="M 0,600 H 900 V 0 H 0 Z"
         transform="translate(-251.60211,-138.7783)"
         id="path18" />
    </clipPath>
  </defs>
  <sodipodi:namedview
     id="namedview1"
     pagecolor="#ffffff"
     bordercolor="#000000"
     borderopacity="0.25"
     inkscape:showpageshadow="2"
     inkscape:pageopacity="0.0"
     inkscape:pagecheckerboard="0"
     inkscape:deskcolor="#d1d1d1">
    <inkscape:page
       x="0"
       y="0"
       inkscape:label="1"
       id="page1"
       width="1200"
       height="800"
       margin="0"
       bleed="0" />
  </sodipodi:namedview>
  <g
     id="layer-MC0"
     inkscape:groupmode="layer"
     inkscape:label="Layer 1">
    <path
       id="path1"
       d="M 0,0 H 900 V 600 H 0 Z"
       style="fill:#ffffff;fill-opacity:1;fill-rule:nonzero;stroke:none"
       transform="matrix(1.3333333,0,0,-1.3333333,0,800)" />
    <path
       id="path2"
       d="M 0,0 V -240 H -390 V -360 H 0 v -240 h 120.001 v 240 H 510 v 120 H 120.001 V 0 Z"
       style="fill:#e8112d;fill-opacity:1;fill-rule:nonzero;stroke:none"
       transform="matrix(1.3333333,0,0,-1.3333333,519.9996,-4e-4)" />
    <path
       id="path3"
       d="m 0,0 c 7.315,-38.491 7.315,-78.014 0,-116.504 13.566,1.692 27.291,1.692 40.857,0 -7.315,38.49 -7.315,78.013 0,116.504 C 27.291,-1.693 13.566,-1.693 0,0"
       style="fill:#e8112d;fill-opacity:1;fill-rule:nonzero;stroke:none"
       transform="matrix(1.3333333,0,0,-1.3333333,230.56187,80.130267)"
       clip-path="url(#clipPath4)" />
    <path
       id="path5"
       d="m 0,0 c -38.49,-7.315 -78.014,-7.315 -116.504,0 1.692,-13.566 1.692,-27.291 0,-40.857 38.49,7.315 78.014,7.315 116.504,0 C -1.692,-27.291 -1.692,-13.566 0,0"
       style="fill:#e8112d;fill-opacity:1;fill-rule:nonzero;stroke:none"
       transform="matrix(1.3333333,0,0,-1.3333333,335.46947,130.56187)"
       clip-path="url(#clipPath6)" />
    <path
       id="path7"
       d="m 0,0 c 7.314,-38.49 7.314,-78.015 0,-116.505 13.566,1.692 27.29,1.692 40.856,0 -7.314,38.49 -7.314,78.015 0,116.505 C 27.29,-1.693 13.566,-1.693 0,0"
       style="fill:#e8112d;fill-opacity:1;fill-rule:nonzero;stroke:none"
       transform="matrix(1.3333333,0,0,-1.3333333,914.96227,564.53)"
       clip-path="url(#clipPath8)" />
    <path
       id="path9"
       d="m 0,0 c -38.49,-7.314 -78.015,-7.314 -116.505,0 1.693,-13.566 1.693,-27.29 0,-40.856 38.49,7.314 78.015,7.314 116.505,0 C -1.692,-27.29 -1.692,-13.566 0,0"
       style="fill:#e8112d;fill-opacity:1;fill-rule:nonzero;stroke:none"
       transform="matrix(1.3333333,0,0,-1.3333333,1019.8697,614.96227)"
       clip-path="url(#clipPath10)" />
    <path
       id="path11"
       d="m 0,0 c 7.314,-38.491 7.314,-78.014 0,-116.504 13.566,1.692 27.29,1.692 40.856,0 -7.314,38.49 -7.314,78.013 0,116.504 C 27.29,-1.693 13.566,-1.693 0,0"
       style="fill:#e8112d;fill-opacity:1;fill-rule:nonzero;stroke:none"
       transform="matrix(1.3333333,0,0,-1.3333333,914.96227,80.130267)"
       clip-path="url(#clipPath12)" />
    <path
       id="path13"
       d="m 0,0 c -38.49,-7.315 -78.015,-7.315 -116.505,0 1.693,-13.566 1.693,-27.291 0,-40.857 38.49,7.315 78.015,7.315 116.505,0 C -1.692,-27.291 -1.692,-13.566 0,0"
       style="fill:#e8112d;fill-opacity:1;fill-rule:nonzero;stroke:none"
       transform="matrix(1.3333333,0,0,-1.3333333,1019.8697,130.56187)"
       clip-path="url(#clipPath14)" />
    <path
       id="path15"
       d="m 0,0 c 7.315,-38.49 7.315,-78.015 0,-116.505 13.566,1.692 27.291,1.692 40.857,0 -7.315,38.49 -7.315,78.015 0,116.505 C 27.291,-1.693 13.566,-1.693 0,0"
       style="fill:#e8112d;fill-opacity:1;fill-rule:nonzero;stroke:none"
       transform="matrix(1.3333333,0,0,-1.3333333,230.56187,564.53)"
       clip-path="url(#clipPath16)" />
    <path
       id="path17"
       d="m 0,0 c -38.49,-7.314 -78.014,-7.314 -116.504,0 1.692,-13.566 1.692,-27.29 0,-40.856 38.49,7.314 78.014,7.314 116.504,0 C -1.692,-27.29 -1.692,-13.566 0,0"
       style="fill:#e8112d;fill-opacity:1;fill-rule:nonzero;stroke:none"
       transform="matrix(1.3333333,0,0,-1.3333333,335.46947,614.96227)"
       clip-path="url(#clipPath18)" />
  </g>
</svg>
